X:1
T:4 Lieder, Op. 27
T:Morgen
T:4. Morgen!
T:Richard Stauss
T:John Henry Mackay
T:4 Lieder, Op. 27 Für hohe Stimme 
T:OpenScore (CC0)
T:OpenScore (CC0)
C:Strauss, Richard
Z:Mackay, John henry
Z:OpenScore (CC0)
%%score 1 { ( 2 4 ) | 3 }
L:1/8
Q:1/4=50
M:4/4
K:G
V:1 treble nm="Gesang\nVoice"
V:2 treble nm="Piano"
V:4 treble 
V:3 bass 
V:1
"^Langsam  sehr getragen" z8 | z8 | z8 | z8 | z8 | z8 | z8 | z8 | z8 | z8 | z8 | %11
w: |||||||||||
"^Gesang / Voice" z8 | z8 | z2"^sehr ruhig" z ^G G A B c | d G B4- B A | A2 G2 z G G F | %16
w: ||Und Mor- gen wird die|Son- ne wie- * der|schei- nen und auf dem|
 B3 B z B2 B | B3 e e2 A A | d3 d f3/2 A/ A2 | z A c3 d c2- | c2 B B B B B B | d3 d c2 c B | %22
w: We- ge, den ich|ge- hen wer- de, wird|uns, die Glück- li- chen,|sie wie- der ei-|* nen in- mit- ten die- ser|son- nen- at- men- den|
 B2 A2 z4 | z F G A d e e2- | e2 d2 g3 B | A2 G2 G A B2 | d2 z e d2 c2 | e2 d2 B2 G2 | z8 | z8 | %30
w: Er- de...|und zu dem Strand, dem wei-|* ten, wo- gen-|blau- en, wer- den wir|still und lang- sam|nie- der stei- gen,|||
 z4 z2 A2- | A2 A A A A A A | B3 B B2 B2 | z4"^immer ruhig" z2 B B | c4 c2 c2 | _e3 _A A2 G2 | G8 | %37
w: stumm|* wer- den wir uns in die|Au- gen schau- en,|und auf|uns sinkt des|Glü- ckes stum- mes|Schwei-|
 F2 z2 z4 | z8 | z8 | z8 | z8 | !fermata!z8 |] %43
w: gen...||||||
V:2
!p! (B4 d4 | !arpeggio!e4 g4 | !arpeggio!b4 !arpeggio!a3 g | g4 !arpeggio!f2) z2 | %4
 (!arpeggio!a4 c3 d | !arpeggio!c4 B2 (B2-) | [Bd]4 [Ac]3 [GB] | A8) | (!arpeggio!d4 f4 | %9
 !arpeggio!a4 g4) | (!arpeggio!e4 b4 | [de-bd']4 [ceac']4) | ([db]2 [Bg]2 [Gd]2 [DB]2 | %13
 f2 e2 d2 c2 | B2) z2 [CDF]2 z2 |!p! (B4 d4 | !arpeggio!e4 g4 | !arpeggio!b4 a3 g | %18
 g4 !arpeggio!f2) z2 | (!arpeggio!a4 c3 d | !arpeggio!c4 B2) (B2- | [Bd]4 [Ac]3 [GB] | A8) | %23
 (!arpeggio!d4 f4 | a4 g4) | (e4!>(! b4!>)! |!pp! [de-bd']4 [ceac']4) | ([db]2 [Bg]2 [Gd]2 [DB]2 | %28
 f2 e2 d2 c2) |!p! (B4!>(! A c2 F)!>)! | [B,=FA]8- | [B,FA]8 | [B,^DAB]8- | [B,DAB]8 | [C_EAc]8 | %35
 [_E_A_e]8 | ([D-=GA-d-]8 | [DFAd]6) z2 |!p! (B4 d4- | d8) | (e4 x4 |!>(! g4 [Beb]4)!>)! | %42
!pp! !fermata![dgd']8 |] %43
V:3
!ped! (3(G,,D,G, (3B,[I:staff -1]DG)[I:staff +1] z4!ped-up! | %1
!ped! (3(G,,D,G, (3B,D[I:staff -1]G)[I:staff +1] z4!ped-up! | %2
!ped! (3(C,^G,B, E2)!ped-up!!ped! (3(C,A,C E2)!ped-up! |!ped! (3(D,A,C D2- (3D!ped-up!CD A2) | %4
!ped! (3(^D,A,C (3^DFA) z4!ped-up! |!ped! (3(E,,B,,E, (3B,EG) z4!ped-up! | %6
!ped! (3(C,,C,^G, B,2)!ped-up!!ped! (3(C,,C,A, C2)!ped-up! | %7
!ped! (3(D,,A,,D, (3F,A,D F2) z2!ped-up! |!ped! (3(C,F,A, (3DFA) z4!ped-up! | %9
!ped! (3(B,,D,B, (3DGB) z4!ped-up! |!ped! (3(E,G,B, (3EGB) z4!ped-up! | %11
!ped! (3(A,,E,B, (3DEB [CA]2)!ped-up! z2 |!ped! !arpeggio![D,,D,] G,2 B,2 E3!ped-up! | %13
 ([B,D]4 [CE]4 | D2) z2 D,2 z2 |!ped! (3(G,,D,G, (3B,[I:staff -1]DG)[I:staff +1] z4!ped-up! | %16
!ped! (3(G,,D,G, (3B,D[I:staff -1]G)[I:staff +1] z4!ped-up! | %17
!ped! (3(C,^G,B, E2)!ped-up!!ped! (3(C,A,C E2)!ped-up! |!ped! (3(D,A,C D2- (3D!ped-up!CD A2) | %19
!ped! (3(^D,A,C (3^DFA) z4!ped-up! |!ped! (3(E,,B,,E, (3B,EG) z4!ped-up! | %21
!ped! (3(C,,C,^G, B,2)!ped-up!!ped! (3(C,,C,A, C2)!ped-up! | %22
!ped! (3(D,,A,,D, (3F,A,D F2) z2!ped-up! |!ped! (3(C,F,A, (3DFA) z4!ped-up! | %24
!ped! (3(B,,D,B, (3DGB) z4!ped-up! |!ped! (3(E,G,B, (3EGB) z4!ped-up! | %26
!ped! (3(A,,E,B, (3DEB [CA]2)!ped-up! z2 |!ped! (!arpeggio![D,,D,] G,2 B,2 E3)!ped-up! | %28
 ([B,D]4 [CE]4 | D4 D,4) |!pp!!ped! [G,,D,G,]8- | [G,,D,G,]8 |!ped! [F,,B,,^D,A,]8-!ped-up! | %33
 [F,,B,,D,A,]8 |!ped! [=F,,C,_E,A,]8!ped-up! |!ped! [C,,_A,,C,]8!ped-up! | [D,,=A,,D,]8- | %37
 [D,,A,,D,]6 z2 |!ped! (3(G,,D,G, (3B,[I:staff -1]DG)[I:staff +1] x4!ped-up! | z8 | %40
!ped! (3(G,,!ped-up!D,G, (3B,D[I:staff -1]G) g4- |[I:staff +1] z4 [EG]4 | !fermata![DGB]8 |] %43
V:4
 x8 | !arpeggio![EB]2 x6 | !arpeggio![Be]2 x2 !arpeggio![Ae]2 x2 | %3
 !arpeggio![Gcd]2 x2 !arpeggio!F2 x2 | !arpeggio!A2 x6 | !arpeggio!G2 x6 | E4 x4 | F2 x6 | %8
 !arpeggio![DA]2 x6 | !arpeggio![Ad]2 x6 | !arpeggio![EB]2 x6 | x8 | x8 | ^G4 A4 | G2 x6 | x8 | %16
 !arpeggio![EB]2 x6 | [Be]2 x2 !arpeggio![Ae]2 x2 | !arpeggio![Gc]2 x2 !arpeggio!F2 x2 | %19
 !arpeggio!A2 x6 | G2 x6 | E4 x4 | F2 x6 | [DA]2 x6 | !arpeggio![Ad]2 x6 | !arpeggio![EB]2 x6 | %26
 x8 | x8 | ^G4 A4 | G4 [CDF]2 x2 | x8 | x8 | x8 | x8 | x8 | x8 | x8 | x8 | x8 | x8 | [EB]2 x6 | %41
 x8 | x8 |] %43

